cartflows/admin-core/assets/images/plugins/suretriggers.svg

<svg width="189" height="28" viewBox="0 0 189 28" fill="none" xmlns="http://www.w3.org/2000/svg">
<path d="M34.0391 19.5752L35.1673 17.9492C35.685 18.5352 36.3737 19.0283 37.2333 19.4287C38.093 19.8291 38.9965 20.0293 39.9441 20.0293C41.0284 20.0293 41.8733 19.7998 42.479 19.3408C43.0944 18.8818 43.4021 18.2812 43.4021 17.5391C43.4021 17.0703 43.236 16.6748 42.9039 16.3525C42.5718 16.0303 42.142 15.7812 41.6145 15.6055C41.087 15.4297 40.5058 15.2686 39.8708 15.1221C39.2359 14.9756 38.596 14.8047 37.9513 14.6094C37.3164 14.4141 36.7351 14.1748 36.2077 13.8916C35.6802 13.6084 35.2503 13.208 34.9182 12.6904C34.5861 12.1631 34.42 11.5381 34.42 10.8154C34.42 9.62402 34.8987 8.63281 35.856 7.8418C36.8133 7.04102 38.1272 6.64062 39.7976 6.64062C42.0052 6.64062 43.7928 7.34375 45.1604 8.75L44.1201 10.3027C43.6707 9.75586 43.0651 9.31641 42.3032 8.98438C41.551 8.64258 40.7158 8.47168 39.7976 8.47168C38.8305 8.47168 38.0539 8.69141 37.4678 9.13086C36.8817 9.56055 36.5886 10.1025 36.5886 10.7568C36.5886 11.1768 36.7547 11.5332 37.0868 11.8262C37.4189 12.1094 37.8439 12.334 38.3616 12.5C38.8891 12.6562 39.4703 12.8076 40.1053 12.9541C40.75 13.0908 41.3898 13.2617 42.0248 13.4668C42.6695 13.6719 43.2507 13.9258 43.7684 14.2285C44.2959 14.5215 44.7257 14.9463 45.0579 15.5029C45.39 16.0596 45.556 16.7188 45.556 17.4805C45.556 18.75 45.0579 19.7998 44.0615 20.6299C43.0749 21.4502 41.6829 21.8604 39.8855 21.8604C37.4531 21.8604 35.5043 21.0986 34.0391 19.5752Z" fill="#1F2937"/>
<path d="M47.4187 17.2314V7.00684H49.6605V16.543C49.6605 17.7539 49.9389 18.6084 50.4957 19.1064C51.0525 19.5947 51.8633 19.8389 52.9281 19.8389C53.7682 19.8389 54.5789 19.6289 55.3604 19.209C56.1419 18.7891 56.7524 18.2715 57.192 17.6562V7.00684H59.4485V21.4941H57.192V19.458C56.5864 20.1416 55.8293 20.7129 54.9208 21.1719C54.0124 21.6309 53.0502 21.8604 52.0343 21.8604C48.9572 21.8604 47.4187 20.3174 47.4187 17.2314Z" fill="#1F2937"/>
<path d="M62.1464 21.4941V7.00684H64.3882V9.32129C65.0134 8.52051 65.7411 7.88086 66.5715 7.40234C67.4018 6.91406 68.2858 6.66992 69.2236 6.66992V8.98438C68.8719 8.94531 68.5838 8.92578 68.3591 8.92578C67.6655 8.92578 66.9134 9.16504 66.1026 9.64355C65.2918 10.1123 64.7203 10.6445 64.3882 11.2402V21.4941H62.1464Z" fill="#1F2937"/>
<path d="M69.4012 14.2285C69.4012 12.8418 69.704 11.5723 70.3096 10.4199C70.925 9.25781 71.7798 8.33984 72.8739 7.66602C73.9679 6.98242 75.1939 6.64062 76.5517 6.64062C77.9779 6.64062 79.2233 6.9873 80.2881 7.68066C81.3529 8.37402 82.1539 9.30664 82.6911 10.4785C83.2382 11.6406 83.5117 12.9541 83.5117 14.4189V14.9902H71.8042C71.8921 16.416 72.4001 17.6074 73.3281 18.5645C74.2659 19.5215 75.4869 20 76.9912 20C77.8411 20 78.6568 19.8389 79.4382 19.5166C80.2295 19.1943 80.9182 18.7354 81.5043 18.1396L82.5739 19.6045C81.0403 21.1084 79.1208 21.8604 76.8154 21.8604C74.6468 21.8604 72.869 21.1523 71.4818 19.7363C70.0947 18.3203 69.4012 16.4844 69.4012 14.2285ZM71.7749 13.3057H81.2845C81.2747 12.749 81.1721 12.1973 80.9768 11.6504C80.7912 11.1035 80.5128 10.5908 80.1416 10.1123C79.7704 9.63379 79.2722 9.24805 78.647 8.95508C78.0218 8.65234 77.3136 8.50098 76.5224 8.50098C75.78 8.50098 75.1059 8.64746 74.5003 8.94043C73.8947 9.2334 73.4013 9.61914 73.0204 10.0977C72.6492 10.5664 72.3561 11.0791 72.1412 11.6357C71.9263 12.1826 71.8042 12.7393 71.7749 13.3057Z" fill="#1F2937"/>
<path d="M93.2009 21.7472V9.55219H97.5672V6.73969H85.5938V9.55219H89.9825V21.7472H93.2009Z" fill="#1F2937"/>
<path d="M111.342 21.7472L107.943 16.0322C109.564 15.6497 111.252 14.2097 111.252 11.5772C111.252 8.78719 109.316 6.73969 106.188 6.73969H99.1659V21.7472H102.362V16.4147H104.702L107.651 21.7472H111.342ZM105.738 13.6022H102.362V9.55219H105.738C106.998 9.55219 107.966 10.3172 107.966 11.5547C107.966 12.8372 106.998 13.6022 105.738 13.6022Z" fill="#1F2937"/>
<path d="M116.374 21.7472V6.73969H113.178V21.7472H116.374Z" fill="#1F2937"/>
<path d="M126.196 22.0172C128.897 22.0172 131.035 20.9147 132.565 19.2047V13.4447H125.408V16.2347H129.369V18.0347C128.762 18.5972 127.524 19.1822 126.196 19.1822C123.45 19.1822 121.47 17.0897 121.47 14.2547C121.47 11.4197 123.45 9.32719 126.196 9.32719C127.771 9.32719 129.054 10.2272 129.752 11.2847L132.385 9.84469C131.26 8.06719 129.302 6.49219 126.196 6.49219C121.785 6.49219 118.184 9.50719 118.184 14.2547C118.184 18.9797 121.785 22.0172 126.196 22.0172Z" fill="#1F2937"/>
<path d="M141.944 22.0172C144.645 22.0172 146.783 20.9147 148.314 19.2047V13.4447H141.157V16.2347H145.118V18.0347C144.51 18.5972 143.272 19.1822 141.944 19.1822C139.199 19.1822 137.218 17.0897 137.218 14.2547C137.218 11.4197 139.199 9.32719 141.944 9.32719C143.52 9.32719 144.803 10.2272 145.5 11.2847L148.134 9.84469C147.008 8.06719 145.05 6.49219 141.944 6.49219C137.533 6.49219 133.932 9.50719 133.932 14.2547C133.932 18.9797 137.533 22.0172 141.944 22.0172Z" fill="#1F2937"/>
<path d="M161.024 21.7472V18.9347H153.597V15.5147H160.866V12.7022H153.597V9.55219H161.024V6.73969H150.401V21.7472H161.024Z" fill="#1F2937"/>
<path d="M175.248 21.7472L171.849 16.0322C173.47 15.6497 175.158 14.2097 175.158 11.5772C175.158 8.78719 173.222 6.73969 170.094 6.73969H163.072V21.7472H166.268V16.4147H168.608L171.557 21.7472H175.248ZM169.644 13.6022H166.268V9.55219H169.644C170.904 9.55219 171.872 10.3172 171.872 11.5547C171.872 12.8372 170.904 13.6022 169.644 13.6022Z" fill="#1F2937"/>
<path d="M182.44 22.0172C186.469 22.0172 188.45 19.9472 188.45 17.2022C188.45 11.5997 179.83 13.1972 179.83 10.8347C179.83 9.93469 180.595 9.34969 181.945 9.34969C183.476 9.34969 185.096 9.86719 186.312 10.9922L188.09 8.60719C186.604 7.23469 184.624 6.51469 182.238 6.51469C178.704 6.51469 176.544 8.58469 176.544 11.0822C176.544 16.7297 185.186 14.9072 185.186 17.5172C185.186 18.3947 184.354 19.1822 182.576 19.1822C180.505 19.1822 178.862 18.2372 177.804 17.1347L176.049 19.6322C177.467 21.0497 179.537 22.0172 182.44 22.0172Z" fill="#1F2937"/>
<path fill-rule="evenodd" clip-rule="evenodd" d="M14.004 28C21.7382 28 28.008 21.732 28.008 14C28.008 6.26801 21.7382 0 14.004 0C6.26982 0 0 6.26801 0 14C0 21.732 6.26982 28 14.004 28ZM14.0643 7C12.9399 7 11.3837 7.64287 10.5886 8.4359L8.42912 10.5897H19.193L22.7922 7H14.0643ZM17.4013 19.5641C16.6062 20.3571 15.05 21 13.9256 21H5.19769L8.79688 17.4103H19.5608L17.4013 19.5641ZM20.8996 12.3846H6.63342L5.95954 13.0577C4.36389 14.4936 4.83713 15.6154 7.07177 15.6154H21.3766L22.0507 14.9423C23.6308 13.5149 23.1342 12.3846 20.8996 12.3846Z" fill="#2D64FB"/>
</svg>

<svg width="189" height="28" fill="none" xmlns="http://www.w3.org/2000/svg"><path d="m34.04 19.575 1.127-1.626c.518.586 1.207 1.08 2.066 1.48.86.4 1.764.6 2.711.6 1.084 0 1.93-.23 2.535-.688.615-.46.923-1.06.923-1.802a1.59 1.59 0 0 0-.498-1.187c-.332-.322-.762-.57-1.29-.747a19.143 19.143 0 0 0-1.743-.483 29.496 29.496 0 0 1-1.92-.513 9.714 9.714 0 0 1-1.743-.717 3.454 3.454 0 0 1-1.29-1.202c-.332-.527-.498-1.152-.498-1.875 0-1.191.479-2.182 1.436-2.973.957-.801 2.271-1.201 3.942-1.201 2.207 0 3.995.703 5.362 2.109l-1.04 1.553c-.45-.547-1.055-.987-1.817-1.319-.752-.341-1.587-.512-2.505-.512-.968 0-1.744.22-2.33.659-.586.43-.88.971-.88 1.626 0 .42.167.776.499 1.07.332.282.757.507 1.275.673.527.156 1.108.308 1.743.454.645.137 1.285.308 1.92.513a8.621 8.621 0 0 1 1.743.761c.528.293.958.718 1.29 1.275.332.557.498 1.216.498 1.977 0 1.27-.498 2.32-1.494 3.15-.987.82-2.38 1.23-4.176 1.23-2.433 0-4.382-.761-5.847-2.285ZM47.419 17.231V7.007h2.242v9.536c0 1.21.278 2.065.835 2.563.556.489 1.367.733 2.432.733.84 0 1.65-.21 2.432-.63.782-.42 1.392-.938 1.832-1.553V7.006h2.257v14.488h-2.257v-2.036c-.606.684-1.363 1.255-2.271 1.714a6.315 6.315 0 0 1-2.887.688c-3.077 0-4.615-1.543-4.615-4.629ZM62.146 21.494V7.007h2.242V9.32a7.53 7.53 0 0 1 2.183-1.919 5.147 5.147 0 0 1 2.653-.732v2.314a8.137 8.137 0 0 0-.865-.058c-.694 0-1.446.239-2.256.718-.811.468-1.383 1-1.715 1.596v10.254h-2.242ZM69.401 14.229c0-1.387.303-2.657.909-3.81a7.037 7.037 0 0 1 2.564-2.753c1.094-.684 2.32-1.025 3.678-1.025 1.426 0 2.671.346 3.736 1.04a6.501 6.501 0 0 1 2.403 2.798c.547 1.162.82 2.475.82 3.94v.571H71.805c.088 1.426.596 2.617 1.524 3.574.938.957 2.159 1.436 3.663 1.436.85 0 1.666-.161 2.447-.483a6.083 6.083 0 0 0 2.066-1.377l1.07 1.465c-1.534 1.503-3.453 2.255-5.759 2.255-2.168 0-3.946-.708-5.333-2.124-1.387-1.416-2.08-3.252-2.08-5.508Zm2.374-.923h9.51a5.165 5.165 0 0 0-.308-1.656 5.252 5.252 0 0 0-.835-1.538c-.372-.478-.87-.864-1.495-1.157-.625-.303-1.333-.454-2.125-.454-.742 0-1.416.146-2.022.44a4.184 4.184 0 0 0-1.48 1.157 5.868 5.868 0 0 0-.879 1.538 5.288 5.288 0 0 0-.366 1.67ZM93.2 21.747V9.552h4.367V6.74H85.594v2.812h4.389v12.195H93.2ZM111.342 21.747l-3.399-5.715c1.621-.382 3.309-1.822 3.309-4.455 0-2.79-1.936-4.837-5.064-4.837h-7.022v15.007h3.196v-5.332h2.34l2.949 5.332h3.691Zm-5.604-8.145h-3.376v-4.05h3.376c1.26 0 2.228.765 2.228 2.003 0 1.282-.968 2.047-2.228 2.047ZM116.374 21.747V6.74h-3.196v15.007h3.196ZM126.196 22.017c2.701 0 4.839-1.102 6.369-2.812v-5.76h-7.157v2.79h3.961v1.8c-.607.562-1.845 1.147-3.173 1.147-2.746 0-4.726-2.092-4.726-4.927 0-2.835 1.98-4.928 4.726-4.928 1.575 0 2.858.9 3.556 1.958l2.633-1.44c-1.125-1.778-3.083-3.353-6.189-3.353-4.411 0-8.012 3.015-8.012 7.763 0 4.725 3.601 7.762 8.012 7.762ZM141.944 22.017c2.701 0 4.839-1.102 6.37-2.812v-5.76h-7.157v2.79h3.961v1.8c-.608.562-1.846 1.147-3.174 1.147-2.745 0-4.726-2.092-4.726-4.927 0-2.835 1.981-4.928 4.726-4.928 1.576 0 2.859.9 3.556 1.958l2.634-1.44c-1.126-1.778-3.084-3.353-6.19-3.353-4.411 0-8.012 3.015-8.012 7.763 0 4.725 3.601 7.762 8.012 7.762ZM161.024 21.747v-2.812h-7.427v-3.42h7.269v-2.813h-7.269v-3.15h7.427V6.74h-10.623v15.007h10.623ZM175.248 21.747l-3.399-5.715c1.621-.382 3.309-1.822 3.309-4.455 0-2.79-1.936-4.837-5.064-4.837h-7.022v15.007h3.196v-5.332h2.34l2.949 5.332h3.691Zm-5.604-8.145h-3.376v-4.05h3.376c1.26 0 2.228.765 2.228 2.003 0 1.282-.968 2.047-2.228 2.047ZM182.44 22.017c4.029 0 6.01-2.07 6.01-4.815 0-5.602-8.62-4.005-8.62-6.367 0-.9.765-1.485 2.115-1.485 1.531 0 3.151.517 4.367 1.642l1.778-2.385c-1.486-1.372-3.466-2.092-5.852-2.092-3.534 0-5.694 2.07-5.694 4.567 0 5.648 8.642 3.825 8.642 6.435 0 .878-.832 1.665-2.61 1.665-2.071 0-3.714-.945-4.772-2.047l-1.755 2.497c1.418 1.418 3.488 2.385 6.391 2.385Z" fill="#1F2937"/><path fill-rule="evenodd" clip-rule="evenodd" d="M14.004 28c7.734 0 14.004-6.268 14.004-14S21.738 0 14.004 0 0 6.268 0 14s6.27 14 14.004 14Zm.06-21c-1.124 0-2.68.643-3.475 1.436l-2.16 2.154h10.764l3.6-3.59h-8.729Zm3.337 12.564C16.606 20.357 15.05 21 13.926 21H5.198l3.599-3.59H19.56l-2.16 2.154Zm3.499-7.18H6.633l-.673.674c-1.596 1.436-1.123 2.557 1.112 2.557h14.305l.674-.673c1.58-1.427 1.083-2.557-1.151-2.557Z" fill="#2D64FB"/></svg>
